X:1
T:Cripple Creek
R:reel
M:4/4
L:1/8
K:A
Q:1/4=120
|:"A"A2eA cAeA|"D"f2d2 d2ef|"A"A2eA cAeA|"E"B2A2 A4|
"A"A2eA cAeA|"D"f2d2 d2ef|"A"ecAc "E"BAGB|"A"A2A2 A4:|
|:"A"a2ae f2ec|"D"dfed c2Ac|"A"a2ae f2ec|"E"BAGB A4|
"A"a2ae f2ec|"D"dfed c2Ac|"A"ecAc "E"BAGB|"A"A2A2 A4:|
